X:1
T:Brisk and Lively Lad
M:4/4
L:1/4
K:F
 C| F D E F GA/2-B/2| cc/2-B/2 AG/2-F/2 G G| F3| C| F D E F GA/2-B/2|\
 cc/2-B/2 AG/2-F/2 G G| F3|A/2-B/2| c d c F/2F/2 F E| C c d c/2B/2 A G|\
